X:1
T:Title
%%score 1 2 3
L:1/8
M:2/2
K:C
V:1 treble nm="Part_1"
V:2 treble-8 nm="Part_2"
V:3 bass nm="Part_3"
V:1
 D8- | D8 | (3:2:2E8 F4 | G4 A4- | A2 G2 G4- | G4 F4 | F6 D2 | E4 F4- | F2 D2 D4- | D4 C4 | D8- | %11
 D8 | z8 | z4 D4- | D4 E4- | E4 F4 | G8 | (3:2:2A8 B4 | c4 d4 | c4 A4- | A4 G4 | A8 | z4 A4- | %23
 A4 A4 | A4 B4 | c4 B4- | B4 A4- | A4 G4 | A8 | z8 | G8 | B8 | c8 | A8 | G8 | c6 A2 | B4 c4- | %37
 c4 G4- | G4 A4- | A4 B4 | c4 A4- | A4 G4 | A8- | A8 | z8 | F8 | F4 F4- | F4 G4- | G4 A4 | B4 A4- | %50
 A2 G2 G4- | G4 F4 | G8- | G8 | z8 | F4 G4 | E4 D4- | D4 C4 | D4 F4 | G4 A4- | A4 B4 | A4 F4 | %62
 G4 F2 F2- | F2 D2 E4 | D4 z4 | G4 F2 A2- | A2 G2 E4 | F4 E2 G2- | G2 F2 D4 | C4 F4 | E3 D D4- | %71
 D4 C4 |[M:4/2] D16 |] %73
V:2
 d8 | B4 G4- | G4 A4 | B4 c4 | d4 e4 | c4 d4 | A4 F4 | G4 A4 | D8 | E8 | D8 | z4 D4- | D4 E4- | %13
 E4 F4 | G8 | A8 | B4 c4- | c4 (3:2:2d4 c2 | A4 G4 | A4 c4 | B8 | A8 | d8 | c8 | d8 | e8 | c4 d4 | %27
 B8 | A6 B2 | c4 d4 | e4 c4 | d8 | z8 | z8 | z8 | z8 | z8 | z8 | z8 | z8 | z8 | z8 | A8 | F4 D4 | %44
 E8 | D8 | d8 | d4 e4 | c8 | d8 | c4 B4 | A8 | G6 A2 | B4 c4 | d4 B2 c2 | A4 G4- | G4 F4 | G4 E4 | %58
 D8 | E4 D4 | F4 G4 | A8 | B4 A4 | F4 G4 | F2 F4 D2 | E4 D3 E | F2 E3 F G2 | F2 D2 C3 D | %68
 E2 F4 G2 | A2 F3 E D2 | C4 D2 F2- | F2 G2 E4 |[M:4/2] D16 |] %73
V:3
 D,8 | G,6 A,2 | B,4 C4 | (3:2:2D4 C2 A,4 | F,4 E,4- | E,4 D,4- | D,8 | C,4 A,,4 | B,,8 | A,,8 | %10
 z8 | D,6 E,2 | F,4 G,4- | G,2 F,G, A,4 | G,4 E,4 | A,,4 (3:2:2D,4 F,2 | E,4 C,4 | F,4 D,4 | %18
 z2 A,2 B,4 | C2 A,4 F,2 | G,4 E,4 | F,8 | D,8 | A,,8 | D,4 G,4 | C,4 G,4 | A,4 D,4 | E,8 | F,8- | %29
 F,8 | E,8 | D,4 G,4 | A,4 F,4- | (F,4 C4 | C2) B,4 C2- | C2 A,2 F,4 | G,4 F,2 A,2- | A,2 B,2 C4 | %38
 B,4 C4 | F,4 G,4 | A,6 C2- | C2 D2 B,4 | C4 A,4- | A,4 B,4- | B,4 C4 | D8 | D,8- | %47
 D,4 (3:2:2C,4 D,2 | E,4 (3:2:2F,4 A,2 | G,4 D,4 | A,2 F,2 G,4 | D,8 | E,6 F,2 | G,4 C,4 | %54
 F,2 D,4 C,2 | D,4 E,4 | C,4 D,4 | z4 G,4 | (3:2:2A,4 G,2 (3:2:2A,4 D2 | (3:2:2C4 B,2 D4 | %60
 A,4 z2 G,2 | F,2 F,4 D,2 | G,4 D,4 | A,4 _B,4 | A,3 B, C2 D2 | D2 C2 D4 | D,2 E,2 C,4 | %67
 C2 B,>A, C4 | C,2 D,2 _B,,4 | A,,4 D,4 | A,,4 B,,4- | B,,2 G,,2 A,,4 |[M:4/2] A,16 |] %73

